_gulp_pug/dist/images/icon/icon-features-2.svg

<svg width="40" height="40" viewBox="0 0 40 40" fill="none" xmlns="http://www.w3.org/2000/svg">
<path d="M12.6338 6.80008L10.2505 4.41675C6.25046 7.46675 3.61712 12.1667 3.38379 17.5001H6.71712C6.96712 13.0834 9.23379 9.21675 12.6338 6.80008ZM33.2838 17.5001H36.6171C36.3671 12.1667 33.7338 7.46675 29.7505 4.41675L27.3838 6.80008C30.7505 9.21675 33.0338 13.0834 33.2838 17.5001ZM30.0005 18.3334C30.0005 13.2167 27.2671 8.93341 22.5005 7.80008V6.66675C22.5005 5.28341 21.3838 4.16675 20.0005 4.16675C18.6171 4.16675 17.5005 5.28341 17.5005 6.66675V7.80008C12.7171 8.93341 10.0005 13.2001 10.0005 18.3334V26.6667L6.66712 30.0001V31.6667H33.3338V30.0001L30.0005 26.6667V18.3334ZM20.0005 36.6667C20.2338 36.6667 20.4505 36.6501 20.6671 36.6001C21.7505 36.3667 22.6338 35.6334 23.0671 34.6334C23.2338 34.2334 23.3171 33.8001 23.3171 33.3334H16.6505C16.6671 35.1667 18.1505 36.6667 20.0005 36.6667Z" fill="white"/>
</svg>

<svg xmlns="http://www.w3.org/2000/svg" width="40" height="40" fill="none" viewBox="0 0 40 40"><path fill="#fff" d="M12.6 6.8l-2.3-2.4c-4 3-6.7 7.8-7 13.1h3.4a14 14 0 0 1 6-10.7zm20.7 10.7h3.3c-.2-5.3-2.9-10-6.8-13l-2.4 2.3c3.4 2.4 5.6 6.3 5.9 10.7zm-3.3.8c0-5-2.7-9.4-7.5-10.5V6.7a2.5 2.5 0 1 0-5 0v1.1C12.7 8.9 10 13.2 10 18.3v8.4L6.7 30v1.7h26.6V30L30 26.7v-8.4zM20 36.7l.7-.1a3.3 3.3 0 0 0 2.6-3.3h-6.6c0 1.9 1.5 3.4 3.3 3.4z"/></svg>
